X: 962
T: All In One Day
R: reel
M: 4/4
K: Gdorian
|:G3d cAFA|GdcA f2A/G/F|G3d cAFA|ABGB AGFA|
G3d cAFA|GdcA f2A/G/F|GdzG cAFA|1 AGcA BAGF:|2 AB G/A/B AGF2||
|:zf/f/fb gfdf-|fgdc cBGF|G3dc2A/G/F|GABf-fc3|
zf2b gfdf-|fgdc cBGF|d2d2A/G/F cA|1 c3d cBGF:|2 c3d cBAB||

